src/lib/packages/icons/src/assets/filled/list.svg

<svg width="24" height="24" viewBox="0 0 24 24" fill="none" xmlns="http://www.w3.org/2000/svg">
<path d="M21 6.5H10C9.448 6.5 9 6.052 9 5.5C9 4.948 9.448 4.5 10 4.5H21C21.552 4.5 22 4.948 22 5.5C22 6.052 21.552 6.5 21 6.5ZM22 12C22 11.448 21.552 11 21 11H10C9.448 11 9 11.448 9 12C9 12.552 9.448 13 10 13H21C21.552 13 22 12.552 22 12ZM22 18.5C22 17.948 21.552 17.5 21 17.5H10C9.448 17.5 9 17.948 9 18.5C9 19.052 9.448 19.5 10 19.5H21C21.552 19.5 22 19.052 22 18.5ZM6 5.5C6 4.672 5.328 4 4.5 4C3.672 4 3 4.672 3 5.5C3 6.328 3.672 7 4.5 7C5.328 7 6 6.328 6 5.5ZM6 12C6 11.172 5.328 10.5 4.5 10.5C3.672 10.5 3 11.172 3 12C3 12.828 3.672 13.5 4.5 13.5C5.328 13.5 6 12.828 6 12ZM6 18.5C6 17.672 5.328 17 4.5 17C3.672 17 3 17.672 3 18.5C3 19.328 3.672 20 4.5 20C5.328 20 6 19.328 6 18.5Z" fill="currentColor"/>
</svg>

<svg xmlns="http://www.w3.org/2000/svg" width="24" height="24" fill="none"><path fill="currentColor" d="M21 6.5H10a1 1 0 0 1 0-2h11a1 1 0 0 1 0 2Zm1 5.5a1 1 0 0 0-1-1H10a1 1 0 0 0 0 2h11a1 1 0 0 0 1-1Zm0 6.5a1 1 0 0 0-1-1H10a1 1 0 0 0 0 2h11a1 1 0 0 0 1-1ZM6 5.5a1.5 1.5 0 1 0-3.001.001A1.5 1.5 0 0 0 6 5.5ZM6 12a1.5 1.5 0 1 0-3.001.001A1.5 1.5 0 0 0 6 12Zm0 6.5a1.5 1.5 0 1 0-3.001.001A1.5 1.5 0 0 0 6 18.5Z"/></svg>
